Newaita/actions/32/gnumeric-link-external.svg

<svg height="32" viewBox="0 0 32 32" width="32" xmlns="http://www.w3.org/2000/svg"><g fill="#424242"><path d="m10.585938 2.894531c-4.398438 0-7.941407 3.542969-7.941407 7.941407 0 4.394531 3.542969 7.9375 7.941407 7.9375h1.984374c.363282 0 .660157-.296876.660157-.664063v-1.320313c0-.367187-.296875-.664062-.660157-.664062h-1.984374c-2.933594 0-5.292969-2.359375-5.292969-5.289062 0-2.933594 2.359375-5.292969 5.292969-5.292969h1.984374c.363282 0 .660157-.296875.660157-.664063v-1.320312c0-.367188-.296875-.664063-.660157-.664063zm8.597656 0c-.367188 0-.660156.296875-.660156.664063v1.320312c0 .367188.292968.664063.660156.664063h1.984375c2.933593 0 5.292969 2.359375 5.292969 5.292969 0 2.929687-2.359376 5.289062-5.292969 5.289062h-1.984375c-.367188 0-.660156.296875-.660156.664062v1.320313c0 .367187.292968.664063.660156.664063h1.984375c4.398437 0 7.9375-3.542969 7.9375-7.9375 0-4.398438-3.539063-7.941407-7.9375-7.941407zm0 0"/><path d="m11.246094 9.511719h9.261718c.363282 0 .660157.296875.660157.660156v1.324219c0 .363281-.296875.660156-.660157.660156h-9.261718c-.367188 0-.660156-.296875-.660156-.660156v-1.324219c0-.363281.292968-.660156.660156-.660156zm0 0"/><path d="m15.214844 26.050781v-2.648437h6.597656c.367188 0 .664062.296875.664062.664062v1.320313c0 .367187-.296874.664062-.664062.664062zm0 0"/><path d="m15.875 20.09375v9.261719l-6.613281-4.628907zm0 0"/></g></svg>

<svg xmlns="http://www.w3.org/2000/svg" xmlns:xlink="http://www.w3.org/1999/xlink" width="32px" height="32px" viewBox="0 0 32 32" version="1.1">
<g id="surface1">
     <defs>
  <style id="current-color-scheme" type="text/css">
   .ColorScheme-Text { color:#424242; } .ColorScheme-Highlight { color:#eeeeee; }
  </style>
 </defs>
<path style="fill:currentColor" class="ColorScheme-Text" d="M 10.585938 2.894531 C 6.1875 2.894531 2.644531 6.4375 2.644531 10.835938 C 2.644531 15.230469 6.1875 18.773438 10.585938 18.773438 L 12.570312 18.773438 C 12.933594 18.773438 13.230469 18.476562 13.230469 18.109375 L 13.230469 16.789062 C 13.230469 16.421875 12.933594 16.125 12.570312 16.125 L 10.585938 16.125 C 7.652344 16.125 5.292969 13.765625 5.292969 10.835938 C 5.292969 7.902344 7.652344 5.542969 10.585938 5.542969 L 12.570312 5.542969 C 12.933594 5.542969 13.230469 5.246094 13.230469 4.878906 L 13.230469 3.558594 C 13.230469 3.191406 12.933594 2.894531 12.570312 2.894531 Z M 19.183594 2.894531 C 18.816406 2.894531 18.523438 3.191406 18.523438 3.558594 L 18.523438 4.878906 C 18.523438 5.246094 18.816406 5.542969 19.183594 5.542969 L 21.167969 5.542969 C 24.101562 5.542969 26.460938 7.902344 26.460938 10.835938 C 26.460938 13.765625 24.101562 16.125 21.167969 16.125 L 19.183594 16.125 C 18.816406 16.125 18.523438 16.421875 18.523438 16.789062 L 18.523438 18.109375 C 18.523438 18.476562 18.816406 18.773438 19.183594 18.773438 L 21.167969 18.773438 C 25.566406 18.773438 29.105469 15.230469 29.105469 10.835938 C 29.105469 6.4375 25.566406 2.894531 21.167969 2.894531 Z M 19.183594 2.894531 "/>
     <defs>
  <style id="current-color-scheme" type="text/css">
   .ColorScheme-Text { color:#424242; } .ColorScheme-Highlight { color:#eeeeee; }
  </style>
 </defs>
<path style="fill:currentColor" class="ColorScheme-Text" d="M 11.246094 9.511719 L 20.507812 9.511719 C 20.871094 9.511719 21.167969 9.808594 21.167969 10.171875 L 21.167969 11.496094 C 21.167969 11.859375 20.871094 12.15625 20.507812 12.15625 L 11.246094 12.15625 C 10.878906 12.15625 10.585938 11.859375 10.585938 11.496094 L 10.585938 10.171875 C 10.585938 9.808594 10.878906 9.511719 11.246094 9.511719 Z M 11.246094 9.511719 "/>
     <defs>
  <style id="current-color-scheme" type="text/css">
   .ColorScheme-Text { color:#424242; } .ColorScheme-Highlight { color:#eeeeee; }
  </style>
 </defs>
<path style="fill:currentColor" class="ColorScheme-Text" d="M 15.214844 26.050781 L 15.214844 23.402344 L 21.8125 23.402344 C 22.179688 23.402344 22.476562 23.699219 22.476562 24.066406 L 22.476562 25.386719 C 22.476562 25.753906 22.179688 26.050781 21.8125 26.050781 Z M 15.214844 26.050781 "/>
     <defs>
  <style id="current-color-scheme" type="text/css">
   .ColorScheme-Text { color:#424242; } .ColorScheme-Highlight { color:#eeeeee; }
  </style>
 </defs>
<path style="fill:currentColor" class="ColorScheme-Text" d="M 15.875 20.09375 L 15.875 29.355469 L 9.261719 24.726562 Z M 15.875 20.09375 "/>
</g>
</svg>
